icons/editor-bezier-1-filled.svg

<svg width="24" height="24" viewBox="0 0 24 24" fill="none" xmlns="http://www.w3.org/2000/svg">
<g id="bezier-01">
<path id="Icon" d="M4.50975 9.78074C5.26973 7.22714 7.37459 5.25274 10.003 4.6789M9.47579 18.9641C7.09534 18.2557 5.2182 16.3785 4.50975 13.9981M18.6592 13.9981C17.9507 16.3785 16.0736 18.2557 13.6931 18.9641M13.166 4.6789C15.9726 5.29165 18.1822 7.50132 18.795 10.3079M10.3637 6.8397H13.0272C13.5176 6.8397 13.9151 6.44219 13.9151 5.95184V3.28825C13.9151 2.7979 13.5176 2.40039 13.0272 2.40039H10.3637C9.8733 2.40039 9.47579 2.7979 9.47579 3.28825V5.95184C9.47579 6.44219 9.8733 6.8397 10.3637 6.8397ZM10.3637 21.6004H13.0272C13.5176 21.6004 13.9151 21.2029 13.9151 20.7125V18.0489C13.9151 17.5586 13.5176 17.1611 13.0272 17.1611H10.3637C9.8733 17.1611 9.47579 17.5586 9.47579 18.0489V20.7125C9.47579 21.2029 9.8733 21.6004 10.3637 21.6004ZM16.1067 10.6683V13.3319C16.1067 13.8223 16.5043 14.2198 16.9946 14.2198H19.6582C20.1485 14.2198 20.5461 13.8223 20.5461 13.3319V10.6683C20.5461 10.178 20.1485 9.78048 19.6582 9.78048H16.9946C16.5043 9.78048 16.1067 10.178 16.1067 10.6683ZM2.40039 10.6683L2.40039 13.3319C2.40039 13.8223 2.7979 14.2198 3.28825 14.2198H5.95184C6.44219 14.2198 6.8397 13.8223 6.8397 13.3319L6.8397 10.6683C6.8397 10.178 6.44219 9.78048 5.95184 9.78048H3.28825C2.7979 9.78048 2.40039 10.178 2.40039 10.6683Z" stroke="black" stroke-width="2"/>
</g>
</svg>

<svg xmlns="http://www.w3.org/2000/svg" width="24" height="24" fill="none" viewBox="0 0 24 24"><path stroke="currentColor" stroke-width="2" d="M4.51 9.78a7.39 7.39 0 0 1 5.493-5.101m-.527 14.285a7.4 7.4 0 0 1-4.966-4.966m14.15 0a7.4 7.4 0 0 1-4.967 4.966M13.166 4.68a7.39 7.39 0 0 1 5.629 5.629M10.364 6.84h2.663c.49 0 .888-.398.888-.888V3.288a.89.89 0 0 0-.888-.888h-2.663a.89.89 0 0 0-.888.888v2.664c0 .49.397.888.888.888Zm0 14.76h2.663c.49 0 .888-.397.888-.888V18.05a.89.89 0 0 0-.888-.888h-2.663a.89.89 0 0 0-.888.888v2.663c0 .49.397.888.888.888Zm5.743-10.932v2.664c0 .49.397.888.888.888h2.663c.49 0 .888-.398.888-.888v-2.664a.89.89 0 0 0-.888-.888h-2.663a.89.89 0 0 0-.888.888Zm-13.707 0v2.664c0 .49.398.888.888.888h2.664c.49 0 .888-.398.888-.888v-2.664a.89.89 0 0 0-.888-.888H3.288a.89.89 0 0 0-.888.888Z"/></svg>
